icons/skip-24.svg

<svg xmlns="http://www.w3.org/2000/svg" width="24" height="24" viewBox="0 0 24 24">
  <defs/>
  <path d="M17.28,7.78 A0.75 0.75 0 0 0 16.22,6.72 L6.72,16.22 A0.75 0.75 0 1 0 7.78,17.28 L17.28,7.78 Z"/>
  <path d="M12,1 C18.075,1 23,5.925 23,12 C23,18.075 18.075,23 12,23 C5.925,23 1,18.075 1,12 C1,5.925 5.925,1 12,1 Z M2.5,12 C2.5,17.247 6.753,21.5 12,21.5 C17.247,21.5 21.5,17.247 21.5,12 C21.5,6.753 17.247,2.5 12,2.5 C6.753,2.5 2.5,6.753 2.5,12 Z"/>
</svg>

<svg xmlns="http://www.w3.org/2000/svg" width="24" height="24" viewBox="0 0 24 24"><path d="M17.28 7.78a.75.75 0 00-1.06-1.06l-9.5 9.5a.75.75 0 101.06 1.06l9.5-9.5z"/><path d="M12 1c6.075 0 11 4.925 11 11s-4.925 11-11 11S1 18.075 1 12 5.925 1 12 1zM2.5 12a9.5 9.5 0 009.5 9.5 9.5 9.5 0 009.5-9.5A9.5 9.5 0 0012 2.5 9.5 9.5 0 002.5 12z"/></svg>
